svg/fluentui-system-icons/ic_fluent_translate_24_filled.svg

<svg width="24" height="24" viewBox="0 0 24 24" fill="none" xmlns="http://www.w3.org/2000/svg">
<path d="M3.07999 5.62072C3.86645 5.25264 5.51618 4.7021 7.53636 5.28985L7.53852 5.29048C8.17652 5.47766 8.69184 5.77416 9.08595 6.17138C9.47999 6.56853 9.70968 7.0228 9.84082 7.46183C10.0431 8.13904 10.021 8.8828 10.0086 9.29912C10.0062 9.37911 10.0042 9.44702 10.0042 9.50004V15.0027C10.0042 15.555 9.55646 16.0027 9.00418 16.0027C8.5498 16.0027 8.1662 15.6997 8.04448 15.2847C8.01804 15.2977 7.99134 15.3107 7.9644 15.3236C7.00046 15.7861 5.56705 16.2446 4.08705 15.8305C2.4545 15.3737 1.63421 14.021 1.51534 12.6946C1.40067 11.4151 1.92573 9.95936 3.19741 9.24746C4.7257 8.3919 6.31262 8.40806 7.45894 8.60677C7.65499 8.64076 7.84058 8.68046 8.01369 8.72298C8.01079 8.48006 7.99145 8.25844 7.92448 8.03423C7.86951 7.85018 7.78776 7.70255 7.66618 7.58002C7.5448 7.45768 7.34062 7.31687 6.97653 7.2099C5.58738 6.80612 4.45834 7.18383 3.92778 7.43214C3.42757 7.66625 2.83228 7.45054 2.59817 6.95032C2.36406 6.45011 2.57978 5.85483 3.07999 5.62072ZM7.11733 10.5774C6.23324 10.4241 5.161 10.4403 4.17436 10.9926C3.74983 11.2303 3.44518 11.8223 3.50736 12.5161C3.56534 13.1631 3.92845 13.7093 4.62594 13.9045C5.41661 14.1257 6.30704 13.9005 7.09928 13.5204C7.46609 13.3444 7.77877 13.1509 8.00418 12.9972V10.7992C7.76422 10.7204 7.46126 10.637 7.11733 10.5774ZM16.3027 7.04709C16.829 7.21454 17.1199 7.77692 16.9524 8.30321C16.8968 8.47796 16.8453 8.67838 16.7978 8.88684C17.4758 8.80114 18.1393 8.68125 18.7615 8.52874C19.2979 8.39725 19.8393 8.7255 19.9708 9.2619C20.1023 9.79831 19.774 10.3397 19.2376 10.4712C18.3399 10.6913 17.373 10.8497 16.3957 10.9436C16.3318 11.2821 16.277 11.6032 16.2303 11.908C16.8563 11.7663 17.4587 11.7252 18.0261 11.77C18.13 11.3286 18.5264 11 18.9995 11C19.5518 11 19.9995 11.4477 19.9995 12C19.9995 12.1097 19.9975 12.2184 19.9936 12.3262C20.9263 12.8111 21.6583 13.5727 22.0971 14.4904C22.5996 15.5413 22.7016 16.7785 22.2679 17.9548C21.832 19.1371 20.8874 20.1741 19.4467 20.8944C18.9528 21.1414 18.3521 20.9412 18.1051 20.4472C17.8581 19.9532 18.0583 19.3526 18.5523 19.1056C19.6116 18.5759 20.158 17.8961 20.3914 17.263C20.627 16.6238 20.5767 15.9469 20.2928 15.3531C20.1421 15.0379 19.9205 14.7401 19.6351 14.4887C19.1021 16.2413 18.0476 17.6175 16.8996 18.5487C16.9134 18.5864 16.9273 18.6246 16.9411 18.6632C17.1271 19.1832 16.8564 19.7556 16.3363 19.9416C15.9107 20.0939 15.45 19.9401 15.1948 19.594C14.8612 19.7375 14.5292 19.8454 14.2066 19.9142C13.4122 20.0835 12.3833 20.062 11.7076 19.3254C10.768 18.2994 10.8443 16.7256 11.4683 15.4431C11.9629 14.4264 12.8423 13.4585 14.1056 12.7423C14.1603 12.2205 14.2389 11.6568 14.3449 11.045C13.8625 11.046 13.3878 11.0302 12.9284 10.9975C12.3775 10.9581 11.9628 10.4797 12.0021 9.92881C12.0414 9.37792 12.5199 8.96321 13.0707 9.00253C13.6022 9.04045 14.1581 9.05277 14.7229 9.04039C14.8108 8.59535 14.9228 8.08579 15.0466 7.69684C15.214 7.17055 15.7764 6.87965 16.3027 7.04709ZM14.0249 15.2805C13.6812 15.6207 13.4324 15.9776 13.2667 16.3181C12.8431 17.1887 13.01 17.7694 13.1721 17.9627L13.1755 17.9642C13.2021 17.9764 13.3608 18.0495 13.7897 17.9581C13.9929 17.9148 14.2211 17.8395 14.4641 17.7306C14.3295 17.3017 14.2058 16.8131 14.123 16.2533C14.0783 15.9512 14.0447 15.6284 14.0249 15.2805ZM16.1971 16.4851C16.8749 15.786 17.4567 14.8677 17.7648 13.7555L16.1138 14.0204C16.0802 14.0322 16.047 14.0442 16.014 14.0564C15.9851 14.8289 16.0255 15.4477 16.1014 15.9605C16.1292 16.1482 16.1614 16.322 16.1971 16.4851Z" fill="#212121"/>
</svg>

<svg xmlns="http://www.w3.org/2000/svg" width="24" height="24"><path d="M3.08 5.62a6.342 6.342 0 0 1 4.456-.33h.003c.638.188 1.153.484 1.547.881.394.398.624.852.755 1.29.202.678.18 1.422.168 1.838a5.73 5.73 0 0 0-.005.201v5.503a1 1 0 0 1-1.96.282 8.566 8.566 0 0 1-.08.039c-.964.462-2.397.92-3.877.507-1.632-.457-2.453-1.81-2.572-3.136-.114-1.28.41-2.736 1.682-3.448 1.529-.855 3.116-.839 4.262-.64a8.2 8.2 0 0 1 .555.116 2.45 2.45 0 0 0-.09-.689 1.046 1.046 0 0 0-.258-.454c-.121-.122-.325-.263-.69-.37a4.342 4.342 0 0 0-3.048.222 1 1 0 1 1-.848-1.811Zm4.037 4.957c-.884-.153-1.956-.137-2.943.416-.424.237-.729.83-.667 1.523.058.647.421 1.193 1.119 1.389.79.22 1.681-.005 2.473-.385.367-.176.68-.37.905-.523V10.8a6.321 6.321 0 0 0-.887-.222Zm9.186-3.53a1 1 0 0 1 .65 1.256 7.374 7.374 0 0 0-.155.584 17.546 17.546 0 0 0 1.964-.358 1 1 0 1 1 .476 1.942 20.18 20.18 0 0 1-2.842.473c-.064.338-.119.66-.166.964a5.988 5.988 0 0 1 1.796-.138A1 1 0 0 1 20 12c0 .11-.003.218-.006.326a4.752 4.752 0 0 1 2.103 2.164 4.436 4.436 0 0 1 .17 3.465c-.435 1.182-1.38 2.22-2.82 2.94a1 1 0 1 1-.895-1.79c1.06-.53 1.606-1.209 1.84-1.842a2.437 2.437 0 0 0-.1-1.91 2.723 2.723 0 0 0-.657-.864 8.405 8.405 0 0 1-2.735 4.06l.041.114a1 1 0 0 1-1.746.931 5.325 5.325 0 0 1-.988.32c-.795.17-1.824.148-2.5-.589-.939-1.026-.863-2.6-.239-3.882.495-1.017 1.374-1.984 2.638-2.7.054-.523.133-1.086.239-1.698a19.88 19.88 0 0 1-1.417-.047 1 1 0 0 1 .143-1.995c.531.037 1.087.05 1.652.037.088-.445.2-.954.324-1.343a1 1 0 0 1 1.256-.65Zm-2.278 8.233c-.344.34-.593.698-.758 1.038-.424.87-.257 1.451-.095 1.645l.003.001c.027.012.186.085.615-.006.203-.043.431-.118.674-.227a9.571 9.571 0 0 1-.341-1.478 10.843 10.843 0 0 1-.098-.973Zm2.172 1.205a6.363 6.363 0 0 0 1.568-2.73l-1.651.265a6.47 6.47 0 0 0-.1.036 10.39 10.39 0 0 0 .087 1.905c.028.187.06.361.096.524Z"/></svg>
